X:1
T:[ID 2-6]
T:[ID 2-6]
T:Bezeichnung standardisiert: Menuett Menuet 4. \"Ahnlich in dieser Quelle: ID 7-67;
T:Urheber unbekannt Erstbeleg: 1767 (Datum in der schriftlichen Quelle) Datum in der hier transkribierten schriftlichen Quelle: 1776 - 1791
C:Urheber unbekannt
C:Erstbeleg: 1767 (Datum in der schriftlichen Quelle)
C:Datum in der hier transkribierten schriftlichen Quelle: 1776 - 1791
L:1/8
M:3/4
K:A
V:1 treble 
V:1
 A4 (3cBA | a2 a2 g2 | E4 (3GFE | d2 d2 cB | A4 (3cBA | a2 a2 g2 | (3agf e2 df | e6 :: EF E2 e2 | %9
 e2 dc d2 | EF E2 d2 | d2 cB c2 | A,2 CA,CE | A2 cAce | (3fed c2 B2 |{c} TB4 A2 :| %16

